X: 36717
T: Sheep In The Boat, The
R: jig
M: 6/8
K: Edorian
D|:B,EF G3|FED def|edB BAF|AFE FED|
B,EF ~G3|FEF def|edB BA/G/F|1 AG/F/E E2D:|2 AG/F/E E2A||
B2 e ede|fef d2f|edB BAF|AFE FED|
Bee ede|fgf d2f|edB BA/G/F|AG/F/E E2A|
B2e ede|f2g a2f|edB BAF|AFE FED|
B,EF ~G3|F3 def|edB BA/G/F|AG/F/E E2D||

